/* XPM */
static char *acceptbutton[] = {
/* columns rows colors chars-per-pixel */
"24 30 3 1 ",
"  c None",
". c black",
"X c #020202",
/* pixels */
"                        ",
"                        ",
"                        ",
"                        ",
"                        ",
"                        ",
"                        ",
"                XXX     ",
"                XXX     ",
"               XXXXXX   ",
"             XXXXXXXX   ",
"             XXXXXXXX   ",
"   XXX      XXXXXXX     ",
" XXXXXX   XXXXXXXX      ",
" XXXXXX   XXXXXXXX      ",
" XXXXXXXXXXXXXXX        ",
"   XXXXXXXXXXXX         ",
"   XXXXXXXXXXXX         ",
"    XXXXXXXXX           ",
"      XXXXXX            ",
"      XXXXXX            ",
"       XXX              ",
"                        ",
"                        ",
"                        ",
"                        ",
"                        ",
"                        ",
"                        ",
"                        "
};
