/* XPM */
static char *closebutton[] = {
/* columns rows colors chars-per-pixel */
"24 30 3 1 ",
"  c None",
". c black",
"X c #020202",
/* pixels */
"                        ",
"                        ",
"                        ",
"                        ",
"                        ",
"                        ",
"                        ",
"      XXX      XXX      ",
"      XXX      XXX      ",
"    XXXXXX   XXXXXX     ",
"    XXXXXXXXXXXXXXX     ",
"    XXXXXXXXXXXXXXX     ",
"      XXXXXXXXXXXX      ",
"       XXXXXXXXX        ",
"       XXXXXXXXX        ",
"       XXXXXXXXX        ",
"      XXXXXXXXXXXX      ",
"      XXXXXXXXXXXX      ",
"    XXXXXXXXXXXXXXX     ",
"    XXXXXX   XXXXXX     ",
"    XXXXXX   XXXXXX     ",
"      XXX      XXX      ",
"                        ",
"                        ",
"                        ",
"                        ",
"                        ",
"                        ",
"                        ",
"                        "
};
