/* XPM */
static char *menubutton[] = {
/* columns rows colors chars-per-pixel */
"24 30 3 1 ",
"  c None",
". c black",
"X c #020202",
/* pixels */
"                        ",
"                        ",
"                        ",
"                        ",
"                        ",
"                        ",
"                        ",
"                        ",
"                        ",
"                        ",
"      ...      ...      ",
"      ...      ...      ",
"    ......   ......     ",
"    ...............     ",
"    ...............     ",
"      ............      ",
"       .........        ",
"       .........        ",
"         ......         ",
"          ...           ",
"          ...           ",
"                        ",
"                        ",
"                        ",
"                        ",
"                        ",
"                        ",
"                        ",
"                        ",
"                        "
};
